src/components/menu-bar/icon--about.svg

<?xml version="1.0" encoding="UTF-8"?>
<svg width="16px" height="16px" viewBox="0 0 16 16" version="1.1" xmlns="http://www.w3.org/2000/svg" xmlns:xlink="http://www.w3.org/1999/xlink">
    <!-- Generator: Sketch 61.2 (89653) - https://sketch.com -->
    <defs>
        <path d="M10,2 C14.418278,2 18,5.581722 18,10 C18,14.418278 14.418278,18 10,18 C5.581722,18 2,14.418278 2,10 C2,5.581722 5.581722,2 10,2 Z M9.928,12.4200793 C9.67199872,12.4200793 9.45600088,12.4958161 9.28,12.6472919 C9.10399912,12.7987678 9.016,12.9854678 9.016,13.2073976 C9.016,13.457509 9.10699909,13.6521349 9.289,13.7912814 C9.47100091,13.9304278 9.68399878,14 9.928,14 C10.1640012,14 10.3719991,13.9295472 10.552,13.7886394 C10.7320009,13.6477316 10.822,13.4539863 10.822,13.2073976 C10.822,12.9854678 10.7360009,12.7987678 10.564,12.6472919 C10.3919991,12.4958161 10.1800013,12.4200793 9.928,12.4200793 Z M10.072,6 C9.44799688,6 8.90200234,6.11272454 8.434,6.33817701 C7.96599766,6.56362948 7.61000122,6.84808283 7.366,7.19154557 C7.12199878,7.53500832 7,7.87406262 7,8.20871863 C7,8.37076259 7.07699923,8.52135554 7.231,8.66050198 C7.38500077,8.79964843 7.57399888,8.86922061 7.798,8.86922061 C8.1780019,8.86922061 8.43599932,8.67019133 8.572,8.27212682 C8.71600072,7.89167577 8.89199896,7.60369979 9.1,7.40819022 C9.30800104,7.21268066 9.6319978,7.11492734 10.072,7.11492734 C10.4480019,7.11492734 10.7549988,7.2118 10.993,7.40554822 C11.2310012,7.59929643 11.35,7.83707477 11.35,8.11889036 C11.35,8.26332085 11.3110004,8.39718124 11.233,8.52047556 C11.1549996,8.64376988 11.0590006,8.75561376 10.945,8.85601057 C10.8309994,8.95640737 10.6460013,9.105239 10.39,9.30250991 C10.0979985,9.52796238 9.86600086,9.72258835 9.694,9.88639366 C9.52199914,10.050199 9.38400052,10.2404216 9.28,10.4570674 C9.17599948,10.6737131 9.124,10.9299853 9.124,11.2258917 C9.124,11.4619122 9.19499929,11.6398057 9.337,11.7595773 C9.47900071,11.8793489 9.65399896,11.9392338 9.862,11.9392338 C10.262002,11.9392338 10.5,11.7560564 10.576,11.3896962 C10.6200002,11.2170841 10.6529999,11.0964336 10.675,11.0277411 C10.6970001,10.9590485 10.7279998,10.890357 10.768,10.8216645 C10.8080002,10.7529719 10.8689996,10.6772351 10.951,10.5944518 C11.0330004,10.5116685 11.1419993,10.4156765 11.278,10.3064729 C11.7700025,9.91897649 12.110999,9.64332975 12.301,9.47952444 C12.491001,9.31571913 12.6549993,9.12109316 12.793,8.89564069 C12.9310007,8.67018822 13,8.40775139 13,8.10832232 C13,7.72787128 12.8790012,7.37560708 12.637,7.05151915 C12.3949988,6.72743123 12.0520022,6.47115902 11.608,6.28269485 C11.1639978,6.09423067 10.6520029,6 10.072,6 Z" id="path-1"></path>
    </defs>
    <g id="Page-1" stroke="none" stroke-width="1" fill="none" fill-rule="evenodd">
        <g id="Forms/Tooltip-" transform="translate(-2.000000, -2.000000)">
            <mask id="mask-2" fill="white">
                <use xlink:href="#path-1"></use>
            </mask>
            <use id="Combined-Shape" fill="#FFFFFF" fill-rule="evenodd" xlink:href="#path-1"></use>
        </g>
    </g>
</svg>

<svg width="16" height="16" viewBox="0 0 16 16" xmlns="http://www.w3.org/2000/svg" xmlns:xlink="http://www.w3.org/1999/xlink"><defs><path d="M10 2c4.418 0 8 3.582 8 8s-3.582 8-8 8-8-3.582-8-8 3.582-8 8-8zm-.072 10.42c-.256 0-.472.076-.648.227-.176.151-.264.338-.264.56 0 .25.091.445.273.584.182.139.395.209.639.209.236 0 .444-.07.624-.211s.27-.335.27-.581c0-.222-.086-.409-.258-.56-.172-.151-.384-.227-.636-.227zm.144-6.42c-.624 0-1.17.113-1.638.338-.468.225-.824.51-1.068.853-.244.343-.366.683-.366 1.017 0 .162.077.313.231.452.154.139.343.209.567.209.38 0 .638-.199.774-.597.144-.38.32-.668.528-.864.208-.196.532-.293.972-.293.376 0 .683.097.921.291.238.194.357.432.357.713 0 .144-.039.278-.117.402-.078.123-.174.235-.288.336-.114.1-.299.249-.555.446-.292.225-.524.42-.696.584-.172.164-.31.354-.414.571-.104.217-.156.473-.156.769 0 .236.071.414.213.534.142.12.317.18.525.18.4 0 .638-.183.714-.55l.099-.362.093-.206.183-.227.327-.288c.492-.387.833-.663 1.023-.827.19-.164.354-.358.492-.584.138-.225.207-.488.207-.787 0-.38-.121-.733-.363-1.057-.242-.324-.585-.58-1.029-.769-.444-.188-.956-.283-1.536-.283z" id="a"/></defs><g transform="translate(-2 -2)" fill="none"><mask><use xlink:href="#a"/></mask><use fill="#fff" xlink:href="#a"/></g></svg>
